!!!Genre:	Dobridyen'
!!!Mode:	Freygish
!!!Listening/dance:	listening
!!!One_Mode:	yes
!!!Orig_tonic: D
**kern
*I"P1
*clefG2
*k[b-e-a-]
*G:frey
*M3/4
*>A
*>bM
*c:
=1
4g
4cc
4ee-
=2
2gg
4ee-
=3
4ff
4ee-
8ddL
8bnJ
=4
2.cc
=5
4g
4cc
4ee-
=6
4gg
4ff
4ee-
=7
2dd
4gg
=8
2.gg
=9
4dd
4ff
4dd
=10
4.gg
8ffL
8ee-
8ddJ
=11
4.cc
8ddL
8ee-
8bnJ
=12
2cc
4g
*>eM
*G:frey
=13
4bn
4dd
4cc
=14
4.bnt
8a-L
8g
8fJ
=15
4g
4gg
8ddL
8bnJ
=16
2.g
*>bM
*c:
=17||
*>B
4gg
(8qff#X/
4gg)
(8qff#/
4gg)
=18
2gg
4dd
=19
8ffn
(8qgg/
8ffJ)
4ee-
8ddL
8bnJ
=20
2cc
4g
=21
4gg
4gg
4gg
=22
4ff
4ee-
8ddL
8ccJ
=23
(8qff#X/
2.gg)
=24
2gg
4dd
*>eM
*G:frey
=25
8ffL
8gg
8ff
8ee-
8dd
8ccJ
=26
4.bnt
8gL
8a-
8enJ
=27
2.f
=28
2f
4ff
=29
8ffL
8ee-
8dd
8cc
8bn
8ccJ
=30
4.bn
8a-L
8g
8fJ
=31
4g
4gg
8ddL
8bnJ
=32
2.g
==
*-
